assets/New moon face/Flat/new_moon_face_flat.svg

<svg width="32" height="32" viewBox="0 0 32 32" fill="none" xmlns="http://www.w3.org/2000/svg">
<path d="M29.999 15.9656C29.999 23.6973 23.7312 29.9651 15.9995 29.9651C8.2678 29.9651 2 23.6973 2 15.9656C2 8.23386 8.2678 1.96606 15.9995 1.96606C23.7312 1.96606 29.999 8.23386 29.999 15.9656Z" fill="#9F70B8"/>
<path d="M2.02193 15.1753C2.37516 15.0615 2.7519 15 3.14301 15C5.1595 15 6.79419 16.6347 6.79419 18.6512C6.79419 20.5459 5.35102 22.1035 3.50396 22.2848C2.54205 20.3864 2 18.2393 2 15.9656C2 15.7004 2.00737 15.4369 2.02193 15.1753ZM26.1571 25.5994C24.4773 27.37 22.3394 28.7017 19.9333 29.4048C19.6477 28.8844 19.4854 28.2867 19.4854 27.6512C19.4854 25.6347 21.12 24 23.1365 24C24.3923 24 25.5001 24.634 26.1571 25.5994ZM29.9545 17.0909C29.8181 18.8057 29.3727 20.4335 28.6739 21.9186C27.5901 21.6461 26.7877 20.6652 26.7877 19.4969C26.7877 18.1179 27.9056 17 29.2846 17C29.5166 17 29.7413 17.0317 29.9545 17.0909ZM15.4925 8C16.8715 8 17.9894 6.88211 17.9894 5.50311C17.9894 4.12412 16.8715 3.00623 15.4925 3.00623C14.1135 3.00623 12.9956 4.12412 12.9956 5.50311C12.9956 6.88211 14.1135 8 15.4925 8ZM14.7894 22.6149C15.8399 23.4374 16.1262 24.8261 15.429 25.7167C14.7317 26.6072 13.3149 26.6624 12.2644 25.8399C11.2139 25.0175 10.9276 23.6288 11.6248 22.7382C12.3221 21.8476 13.739 21.7924 14.7894 22.6149Z" fill="#6B438B"/>
<path d="M10.6699 8.04004C9.30499 8.04004 8.18994 9.14727 8.18994 10.52C8.18994 10.7962 7.96608 11.02 7.68994 11.02C7.4138 11.02 7.18994 10.7962 7.18994 10.52C7.18994 8.59281 8.75489 7.04004 10.6699 7.04004C10.9461 7.04004 11.1699 7.2639 11.1699 7.54004C11.1699 7.81618 10.9461 8.04004 10.6699 8.04004Z" fill="#321B41"/>
<path d="M20.55 7.54004C20.55 7.2639 20.7739 7.04004 21.05 7.04004C22.9651 7.04004 24.5301 8.59281 24.5301 10.52C24.5301 10.7962 24.3062 11.02 24.0301 11.02C23.7539 11.02 23.5301 10.7962 23.5301 10.52C23.5301 9.14727 22.415 8.04004 21.05 8.04004C20.7739 8.04004 20.55 7.81618 20.55 7.54004Z" fill="#321B41"/>
<path d="M10.3081 12.384C10.5071 11.877 11.0029 11.52 11.5899 11.52C12.1976 11.52 12.7162 11.9141 12.8976 12.4647C13.0272 12.8581 13.4512 13.072 13.8446 12.9424C14.238 12.8128 14.4519 12.3888 14.3223 11.9954C13.9437 10.846 12.8622 10.02 11.5899 10.02C10.377 10.02 9.33281 10.7631 8.91177 11.8361C8.76046 12.2216 8.95039 12.6569 9.33598 12.8082C9.72157 12.9595 10.1568 12.7696 10.3081 12.384Z" fill="#321B41"/>
<path d="M20.2099 11.52C19.6229 11.52 19.1271 11.877 18.9281 12.384C18.7768 12.7696 18.3416 12.9595 17.956 12.8082C17.5704 12.6569 17.3805 12.2216 17.5318 11.8361C17.9528 10.7631 18.997 10.02 20.2099 10.02C21.4822 10.02 22.5637 10.846 22.9423 11.9954C23.0719 12.3888 22.858 12.8128 22.4646 12.9424C22.0712 13.072 21.6472 12.8581 21.5176 12.4647C21.3362 11.9141 20.8176 11.52 20.2099 11.52Z" fill="#321B41"/>
<path d="M11.9703 16.5797C11.6774 16.2868 11.2025 16.2868 10.9096 16.5797C10.6167 16.8725 10.6167 17.3474 10.9096 17.6403C13.6525 20.3832 18.0974 20.3832 20.8403 17.6403C21.1332 17.3474 21.1332 16.8725 20.8403 16.5797C20.5474 16.2868 20.0725 16.2868 19.7796 16.5797C17.6225 18.7368 14.1274 18.7368 11.9703 16.5797Z" fill="#321B41"/>
</svg>

<svg xmlns="http://www.w3.org/2000/svg" width="32" height="32" fill="none"><path fill="#9F70B8" d="M29.999 15.966c0 7.731-6.268 14-14 14-7.731 0-13.999-6.269-13.999-14 0-7.732 6.268-14 14-14 7.731 0 13.999 6.268 13.999 14Z"/><path fill="#6B438B" d="M2.022 15.175a3.651 3.651 0 1 1 1.482 7.11 13.941 13.941 0 0 1-1.482-7.11ZM26.157 25.6a13.996 13.996 0 0 1-6.224 3.806 3.651 3.651 0 0 1 6.224-3.805Zm3.797-8.508a13.913 13.913 0 0 1-1.28 4.828 2.498 2.498 0 1 1 1.28-4.828ZM15.492 8a2.497 2.497 0 1 0 0-4.994 2.497 2.497 0 0 0 0 4.994Zm-.703 14.615c1.05.822 1.337 2.211.64 3.102-.697.89-2.114.945-3.165.123-1.05-.823-1.336-2.211-.64-3.102.698-.89 2.115-.946 3.165-.123Z"/><path fill="#321B41" d="M10.67 8.04a2.481 2.481 0 0 0-2.48 2.48.5.5 0 1 1-1 0 3.481 3.481 0 0 1 3.48-3.48.5.5 0 1 1 0 1ZM20.55 7.54a.5.5 0 0 1 .5-.5 3.481 3.481 0 0 1 3.48 3.48.5.5 0 1 1-1 0 2.481 2.481 0 0 0-2.48-2.48.5.5 0 0 1-.5-.5ZM10.308 12.384a1.369 1.369 0 0 1 1.282-.864c.608 0 1.126.394 1.308.945a.75.75 0 0 0 1.424-.47 2.877 2.877 0 0 0-2.732-1.975 2.869 2.869 0 0 0-2.678 1.816.75.75 0 0 0 1.396.548ZM20.21 11.52c-.587 0-1.083.357-1.282.864a.75.75 0 1 1-1.396-.548 2.869 2.869 0 0 1 2.678-1.816c1.272 0 2.354.826 2.732 1.975a.75.75 0 0 1-1.424.47c-.182-.55-.7-.945-1.308-.945ZM11.97 16.58a.75.75 0 0 0-1.06 1.06 7.021 7.021 0 0 0 9.93 0 .75.75 0 1 0-1.06-1.06 5.52 5.52 0 0 1-7.81 0Z"/></svg>
